src/symbolic/places/nemo-bookmark-not-found-symbolic.svg

<svg width="16" height="16" version="1.1" xmlns="http://www.w3.org/2000/svg">
 <defs>
  <style id="current-color-scheme" type="text/css">.ColorScheme-Text { color:#555555; } .ColorScheme-Highlight { color:#5294e2; }</style>
 </defs>
 <path style="fill:currentColor" class="ColorScheme-Text" d="m8.0059 0.29297a2.0002 2.0002 0 0 0-1.8711 1.2813l-1.125 2.9141-3.1152 0.16602a2.0002 2.0002 0 0 0-1.1562 3.5469l2.4238 1.9746-0.80078 3.0195a2.0002 2.0002 0 0 0 3.0215 2.1914l2.6172-1.6953 2.6172 1.6953a2.0002 2.0002 0 0 0 1.3828 0.29883v-1.6855a1.0001 1.0001 0 0 1 0.13477-0.5 1.0001 1.0001 0 0 1-0.13477-0.5v-4.7227l-1.4277 1.1621 1.1328 4.2676-3.7051-2.3984-3.7051 2.3984 1.1328-4.2676-3.4277-2.7891 4.4102-0.23242 1.5898-4.125 1.5898 4.125 4.4102 0.23242-0.42969 0.34961h1.4297a1.0001 1.0001 0 0 1 0.83203 0.44336 2.0002 2.0002 0 0 0-1.7266-2.7891l-3.1152-0.16602-1.125-2.9141a2.0002 2.0002 0 0 0-1.8594-1.2813z" color="#555555" fill="currentColor" opacity=".35"/>
 <path class="ColorScheme-Highlight" d="M13 8v5h2V8zm0 6v2h2v-2z" fill="currentColor"/>
</svg>

<svg width="16" height="16" xmlns="http://www.w3.org/2000/svg"><path style="fill:currentColor;color:#555" d="M8.006.293a2 2 0 0 0-1.871 1.281L5.01 4.488l-3.115.166A2 2 0 0 0 .738 8.201l2.424 1.975-.8 3.02a2 2 0 0 0 3.02 2.19L8 13.692l2.617 1.696a2 2 0 0 0 1.383.299V14a1 1 0 0 1 .135-.5A1 1 0 0 1 12 13V8.277L10.572 9.44l1.133 4.267L8 11.31l-3.705 2.398L5.428 9.44 2 6.65l4.41-.232L8 2.293l1.59 4.125L14 6.65l-.43.35H15a1 1 0 0 1 .832.443 2 2 0 0 0-1.726-2.789l-3.116-.166-1.125-2.914A2 2 0 0 0 8.006.293z" color="#555" fill="currentColor" opacity=".35"/><path d="M13 8v5h2V8zm0 6v2h2v-2z" fill="currentColor" style="color:#5294e2"/></svg>
